packages/foundations/assets/icons/functional/images/maps/map.svg

<svg xmlns="http://www.w3.org/2000/svg" width="32" height="32" fill="none"><path fill="#1A1C1F" fill-rule="evenodd" d="M28.693 4.585c-.204.052-1.576.677-5.573 2.536-1.594.741-2.676 1.215-2.773 1.215-.095-.001-1.007-.396-2.24-.973-5.538-2.588-5.74-2.679-6.099-2.73-.627-.088-.64-.084-4.115 1.515-4.256 1.958-5.635 2.629-5.744 2.794-.16.245-.18 1.387-.164 9.567L2 26.693l.126.257c.163.331.473.546.777.537.236-.006 1.013-.341 4.777-2.061a814 814 0 0 1 3.065-1.395l.905-.407.269.114c.147.063 1.588.714 3.201 1.447 4.393 1.994 4.942 2.228 5.23 2.228.281 0 1.347-.46 5.41-2.336 3.615-1.67 3.979-1.848 4.081-2.005.059-.09.106-.325.136-.685.025-.301.046-4.304.047-8.896l.003-8.35-.14-.215a1.1 1.1 0 0 0-.25-.284c-.139-.087-.695-.12-.944-.057M10.66 15.017l.007 6.83-2.894 1.341a987 987 0 0 1-3.298 1.525l-.406.184-.034-.644c-.045-.836-.045-8.056 0-11.487l.036-2.674.884-.405c.487-.222 1.953-.894 3.258-1.494l2.374-1.089.033.541c.019.298.037 3.615.04 7.372m4.993-6.562c1.35.623 2.72 1.257 3.046 1.409l.591.278.035.755c.044.969.035 12.924-.011 13.543l-.034.466-1.6-.735c-.88-.405-2.374-1.094-3.32-1.532l-1.72-.796v-6.695c0-3.682.016-6.998.035-7.368l.034-.674.246.109c.135.059 1.349.617 2.698 1.24m12.34 6.59L28 21.85l-1.187.551c-.652.303-2.134.99-3.293 1.525l-2.107.975-.032-.624c-.047-.879-.055-8.559-.012-11.619l.035-2.56 1.551-.713 3.258-1.494 1.707-.781.033.565c.018.311.036 3.627.04 7.37"/></svg>

<svg width="32" height="32" viewBox="0 0 32 32" fill="none" xmlns="http://www.w3.org/2000/svg"><path d="M28.693 4.585 C 28.489 4.637,27.117 5.262,23.120 7.121 C 21.526 7.862,20.444 8.336,20.347 8.336 C 20.252 8.335,19.340 7.940,18.107 7.363 C 12.569 4.775,12.367 4.684,12.008 4.633 C 11.381 4.545,11.368 4.549,7.893 6.148 C 3.637 8.106,2.258 8.777,2.149 8.942 C 1.989 9.187,1.969 10.329,1.985 18.509 L 2.000 26.693 2.126 26.950 C 2.289 27.281,2.599 27.496,2.903 27.487 C 3.139 27.481,3.916 27.146,7.680 25.426 C 8.868 24.883,10.247 24.255,10.745 24.031 L 11.650 23.624 11.919 23.738 C 12.066 23.801,13.507 24.452,15.120 25.185 C 19.513 27.179,20.062 27.413,20.350 27.413 C 20.631 27.413,21.697 26.953,25.760 25.077 C 29.375 23.407,29.739 23.229,29.841 23.072 C 29.900 22.982,29.947 22.747,29.977 22.387 C 30.002 22.086,30.023 18.083,30.024 13.491 L 30.027 5.141 29.887 4.926 C 29.811 4.808,29.698 4.680,29.637 4.642 C 29.498 4.555,28.942 4.522,28.693 4.585 M10.660 15.017 L 10.667 21.847 7.773 23.188 C 6.182 23.926,4.698 24.612,4.475 24.713 L 4.069 24.897 4.035 24.253 C 3.990 23.417,3.990 16.197,4.035 12.766 L 4.071 10.092 4.955 9.687 C 5.442 9.465,6.908 8.793,8.213 8.193 L 10.587 7.104 10.620 7.645 C 10.639 7.943,10.657 11.260,10.660 15.017 M15.653 8.455 C 17.003 9.078,18.373 9.712,18.699 9.864 L 19.290 10.142 19.325 10.897 C 19.369 11.866,19.360 23.821,19.314 24.440 L 19.280 24.906 17.680 24.171 C 16.800 23.766,15.306 23.077,14.360 22.639 L 12.640 21.843 12.640 15.148 C 12.640 11.466,12.656 8.150,12.675 7.780 L 12.709 7.106 12.955 7.215 C 13.090 7.274,14.304 7.832,15.653 8.455 M27.993 15.045 L 28.000 21.850 26.813 22.401 C 26.161 22.704,24.679 23.391,23.520 23.926 L 21.413 24.901 21.381 24.277 C 21.334 23.398,21.326 15.718,21.369 12.658 L 21.404 10.098 22.955 9.385 C 23.809 8.993,25.275 8.321,26.213 7.891 L 27.920 7.110 27.953 7.675 C 27.971 7.986,27.989 11.302,27.993 15.045 " fill="#1A1C1F" stroke="none" fill-rule="evenodd"></path></svg>
